icons/currency-yen-outline.svg

<svg xmlns="http://www.w3.org/2000/svg" width="24" height="24" viewBox="0 0 24 24">
  <path d="M12,1 C18.0751322,1 23,5.92486775 23,12 C23,18.0751322 18.0751322,23 12,23 C5.92486775,23 1,18.0751322 1,12 C1,5.92486775 5.92486775,1 12,1 Z M12,3 C7.02943725,3 3,7.02943725 3,12 C3,16.9705627 7.02943725,21 12,21 C16.9705627,21 21,16.9705627 21,12 C21,7.02943725 16.9705627,3 12,3 Z M15.5144958,7.14250707 C15.9542489,7.40635894 16.1180705,7.95484827 15.911725,8.41103258 L15.8574929,8.51449576 L14.366,11 L15,11 C15.5522847,11 16,11.4477153 16,12 C16,12.5128358 15.6139598,12.9355072 15.1166211,12.9932723 L15,13 L13.166,13 L13,13.276 L13,14 L15,14 C15.5522847,14 16,14.4477153 16,15 C16,15.5128358 15.6139598,15.9355072 15.1166211,15.9932723 L15,16 L13,16 L13,17 C13,17.5522847 12.5522847,18 12,18 C11.4871642,18 11.0644928,17.6139598 11.0067277,17.1166211 L11,17 L11,16 L9,16 C8.44771525,16 8,15.5522847 8,15 C8,14.4871642 8.38604019,14.0644928 8.88337887,14.0067277 L9,14 L11,14 L11,13.277 L10.834,13 L9,13 C8.44771525,13 8,12.5522847 8,12 C8,11.4871642 8.38604019,11.0644928 8.88337887,11.0067277 L9,11 L9.634,11 L8.14250707,8.51449576 C7.85835891,8.04091549 8.01192398,7.42665523 8.48550424,7.14250707 C8.92525735,6.87865521 9.48631106,6.99221934 9.79172287,7.38896384 L9.85749293,7.48550424 L11.966,11 L12.034,11 L14.1425071,7.48550424 C14.4266552,7.01192398 15.0409155,6.85835891 15.5144958,7.14250707 Z"/>
</svg>

<svg xmlns="http://www.w3.org/2000/svg" viewBox="0 0 24 24">
  <path d="M12 1a11 11 0 1 1 0 22 11 11 0 0 1 0-22zm0 2a9 9 0 1 0 0 18 9 9 0 0 0 0-18zm3.51 4.14a1 1 0 0 1 .4 1.27l-.05.1-1.5 2.49H15a1 1 0 0 1 .12 2h-1.95l-.17.28V14h2a1 1 0 0 1 .12 2H13v1a1 1 0 0 1-2 .12V16H9a1 1 0 0 1-.12-2H11v-.72l-.17-.28H9a1 1 0 0 1-.12-2h.75L8.14 8.51A1 1 0 0 1 9.8 7.4l.07.1 2.1 3.51h.07l2.11-3.51a1 1 0 0 1 1.37-.35z"/>
</svg>
